packages/icons/src/initialize-ci-step.svg

<svg fill="none" viewBox="0 0 40 41" xmlns="http://www.w3.org/2000/svg"><path clip-rule="evenodd" d="m10.0719 30.8705c5.4739 5.4628 14.3492 5.4628 19.8231 0 .4957-.4946.9462-1.0168 1.3518-1.5616.1649-.2215.4782-.2674.6997-.1024.2215.1649.2673.4781.1024.6996-.4346.5838-.9172 1.143-1.4475 1.6723-5.8642 5.8523-15.3716 5.8523-21.23586 0-.07997-.0798-.17265-.1773-.27116-.284l.00022 4.0363c.00001.2761-.22383.5-.49998.5-.27614 0-.50001-.2238-.50002-.5l-.00031-5.8653 5.87681-.0003c.2761 0 .5.2239.5.5 0 .2762-.2238.5-.5.5l-4.27956.0003c.1413.1564.27517.3001.38036.4051zm22.9521-3.4966c-.2518-.1133-.3641-.4093-.2509-.6611.2722-.605.4991-1.2255.6808-1.8563.0764-.2654.3534-.4185.6188-.3421s.4185.3534.3421.6188c-.1946.676-.4379 1.3412-.7297 1.9899-.1133.2518-.4093.3641-.6611.2508zm-26.29411-.5523c-.25621.103-.54742-.0212-.65044-.2774-.28649-.7125-.51594-1.4424-.68836-2.1828-.06264-.2689.10461-.5377.37356-.6003.26895-.0627.53774.1046.60038.3735.1609.6909.37498 1.3719.64222 2.0365.10302.2562-.02116.5474-.27736.6505zm27.66461-4.0222c-.275-.025-.4776-.2683-.4525-.5433.0601-.6589.0735-1.3212.0402-1.9817-.0138-.2757.1985-.5106.4743-.5245.2758-.0138.5106.1985.5245.4743.0356.7074.0212 1.4169-.0432 2.1227-.025.275-.2683.4776-.5433.4525zm-28.85098-.6141c-.27579.0138-.51062-.1985-.5245-.4743-.0356-.7074-.02122-1.4169.04315-2.1227.02508-.275.26834-.4776.54334-.4525s.4776.2683.45252.5433c-.06009.6589-.07351 1.3212-.04027 1.9817.01388.2758-.19844.5106-.47424.5245zm28.69178-4.0111c-.2689.0626-.5377-.1047-.6003-.3736-.1609-.6909-.375-1.3719-.6422-2.0365-.1031-.2562.0211-.5474.2773-.6504.2562-.1031.5474.0211.6505.2773.2864.7125.5159 1.4424.6883 2.1828.0626.2689-.1046.5377-.3736.6004zm-28.30799-.7534c-.26536-.0764-.41854-.3534-.34213-.6188.19465-.676.43789-1.3412.72971-1.9899.11328-.2518.40927-.3641.66111-.2508.25183.1133.36415.4093.25086.6611-.27219.6051-.4991 1.2255-.68073 1.8563-.0764.2654-.35346.4185-.61882.3421zm2.1262-4.692c-.22149-.165-.26735-.4782-.10244-.6997.43467-.5838.91722-1.143 1.44753-1.6722 5.8642-5.85238 15.3716-5.85238 21.2359 0 .0799.0798.1726.1772.2711.2839l-.0002-4.03628c0-.27614.2238-.50001.5-.50003.2761-.00001.5.22383.5.49998l.0003 5.86533-5.8768.0003c-.2761 0-.5-.2239-.5-.5 0-.2762.2238-.5.5-.5l4.2796-.0002c-.1413-.1565-.2752-.3002-.3804-.4052-5.4739-5.46278-14.3492-5.46278-19.8231 0-.49566.4946-.94623 1.0168-1.35184 1.5616-.16491.2215-.47815.2674-.69965.1025z" fill="#4f5162" fill-rule="evenodd"/></svg>

<svg viewBox="0 0 40 41" fill="none" xmlns="http://www.w3.org/2000/svg">
<path fill-rule="evenodd" clip-rule="evenodd" d="M10.0719 30.8705C15.5458 36.3333 24.4211 36.3333 29.895 30.8705C30.3907 30.3759 30.8412 29.8537 31.2468 29.3089C31.4117 29.0874 31.725 29.0415 31.9465 29.2065C32.168 29.3714 32.2138 29.6846 32.0489 29.9061C31.6143 30.4899 31.1317 31.0491 30.6014 31.5784C24.7372 37.4307 15.2298 37.4307 9.36554 31.5784C9.28557 31.4986 9.19289 31.4011 9.09438 31.2944L9.0946 35.3307C9.09461 35.6068 8.87077 35.8307 8.59462 35.8307C8.31848 35.8307 8.09461 35.6069 8.0946 35.3307L8.09429 29.4654L13.9711 29.4651C14.2472 29.4651 14.4711 29.689 14.4711 29.9651C14.4711 30.2413 14.2473 30.4651 13.9711 30.4651L9.69154 30.4654C9.83284 30.6218 9.96671 30.7655 10.0719 30.8705ZM33.024 27.3739C32.7722 27.2606 32.6599 26.9646 32.7731 26.7128C33.0453 26.1078 33.2722 25.4873 33.4539 24.8565C33.5303 24.5911 33.8073 24.438 34.0727 24.5144C34.3381 24.5908 34.4912 24.8678 34.4148 25.1332C34.2202 25.8092 33.9769 26.4744 33.6851 27.1231C33.5718 27.3749 33.2758 27.4872 33.024 27.3739ZM6.72989 26.8216C6.47368 26.9246 6.18247 26.8004 6.07945 26.5442C5.79296 25.8317 5.56351 25.1018 5.39109 24.3614C5.32845 24.0925 5.4957 23.8237 5.76465 23.7611C6.0336 23.6984 6.30239 23.8657 6.36503 24.1346C6.52593 24.8255 6.74001 25.5065 7.00725 26.1711C7.11027 26.4273 6.98609 26.7185 6.72989 26.8216ZM34.3945 22.7994C34.1195 22.7744 33.9169 22.5311 33.942 22.2561C34.0021 21.5972 34.0155 20.9349 33.9822 20.2744C33.9684 19.9987 34.1807 19.7638 34.4565 19.7499C34.7323 19.7361 34.9671 19.9484 34.981 20.2242C35.0166 20.9316 35.0022 21.6411 34.9378 22.3469C34.9128 22.6219 34.6695 22.8245 34.3945 22.7994ZM5.54352 22.1853C5.26773 22.1991 5.0329 21.9868 5.01902 21.711C4.98342 21.0036 4.9978 20.2941 5.06217 19.5883C5.08725 19.3133 5.33051 19.1107 5.60551 19.1358C5.88051 19.1609 6.08311 19.4041 6.05803 19.6791C5.99794 20.338 5.98452 21.0003 6.01776 21.6608C6.03164 21.9366 5.81932 22.1714 5.54352 22.1853ZM34.2353 18.1742C33.9664 18.2368 33.6976 18.0695 33.635 17.8006C33.4741 17.1097 33.26 16.4287 32.9928 15.7641C32.8897 15.5079 33.0139 15.2167 33.2701 15.1137C33.5263 15.0106 33.8175 15.1348 33.9206 15.391C34.207 16.1035 34.4365 16.8334 34.6089 17.5738C34.6715 17.8427 34.5043 18.1115 34.2353 18.1742ZM5.92731 17.4208C5.66195 17.3444 5.50877 17.0674 5.58518 16.802C5.77983 16.126 6.02307 15.4608 6.31489 14.8121C6.42817 14.5603 6.72416 14.448 6.976 14.5613C7.22783 14.6746 7.34015 14.9706 7.22686 15.2224C6.95467 15.8275 6.72776 16.4479 6.54613 17.0787C6.46973 17.3441 6.19267 17.4972 5.92731 17.4208ZM8.05351 12.7288C7.83202 12.5638 7.78616 12.2506 7.95107 12.0291C8.38574 11.4453 8.86829 10.8861 9.3986 10.3569C15.2628 4.50452 24.7702 4.50452 30.6345 10.3569C30.7144 10.4367 30.8071 10.5341 30.9056 10.6408L30.9054 6.60452C30.9054 6.32838 31.1292 6.10451 31.4054 6.10449C31.6815 6.10448 31.9054 6.32832 31.9054 6.60447L31.9057 12.4698L26.0289 12.4701C25.7528 12.4701 25.5289 12.2462 25.5289 11.9701C25.5289 11.6939 25.7527 11.4701 26.0289 11.4701L30.3085 11.4699C30.1672 11.3134 30.0333 11.1697 29.9281 11.0647C24.4542 5.60192 15.5789 5.60192 10.105 11.0647C9.60934 11.5593 9.15877 12.0815 8.75316 12.6263C8.58825 12.8478 8.27501 12.8937 8.05351 12.7288Z" fill="#4F5162"/>
</svg>
